X: 904
T: O'Connor's favorite
C: anon.
O: Ireland
B: Francis O'Neill: "The Dance Music of Ireland" (1907) no. 904
R: Hornpipe
Z: Transcribed by Frank Nordberg - http://www.musicaviva.com
F: http://www.musicaviva.com/abc/tunes/ireland/oneill-1001/oneill-1001-090
4.abc
M: C|
L: 1/8
K: D
(3(ABc)|dAFA dfaf|gfef d2A2|BdAd GdFd|FEED E2(3(ABc)|dAFA dfaf|gfef dcBA|
BcdB AGFE|D2D2D2:|
|:(FG)|AFdA fdAF|GABG E3f|gfed cdef|edcB A3A|(3(ded) Ad (3(fgf) df|(3(aba
) fd A2f2|gfed cABc|d2d2d2:|
W:
W:
W: From Musica Viva - http://www.musicaviva.com
W: the Internet center for free sheet music downloads.


